!!!COM: Chopin, Frederic
!!!CDT: 1810///-1849///
!!!OTL: Prelude in D Major, Op. 28, No. 5
!!!OPS: Op. 28
!!!ONM: No. 5
!!!OMD: Allegro molto
!!!ODT: 1836///-1839///
!!!PDT: 1839///
!!!AIN: piano
**kern	**kern	**dynam
*staff2	*staff1	*staff1
*clefF4	*clefG2	*clefG2
*k[f#c#]	*k[f#c#]	*k[f#c#]
*D:	*D:	*D:
*M3/8	*M3/8	*M3/8
*MM120	*MM120	*MM120
=1-	=1-	=1-
8r	(16b/LL	p
.	16a/	<
16G\LL	16c#/	.
16AA\	16b^/	.
16G\	16ee/	.
16e\JJ	16a^/JJ	.
=2	=2	=2
16G\LL	16c#/LL	.
16AA\	16b-^/	.
16G\	16ee/	.
16e\	16a^/	.
16G\	16c#/	.
16AA\JJ	16bn^/JJ	.
=3	=3	=3
16G\LL	16ee/LL	.
16e\	16a^/	.
16G\	16c#/	>
16AA\	16b-^/	.
16G\	16ee/	.
16e\JJ	16a^/JJ	.
=4	=4	=4
16G\LL	16c#/LL	.
16AA\	16bn^/	.
16G\	16ee/	.
16e\	16a^/	.
16G\	16c#/	.
16A\JJ	16f#/JJ)	.
=5	=5	=5
16DD\LL	(16d/LL	.
16F#\	16A/	.
16G\	16A#/	.
16GG\	16B/	.
16AA\	16c#/ 16f#/	.
16G\JJ	16e/JJ	.
=6	=6	=6
16F#\LL	16d/LL	<
16BB\	16dd/	.
16d\	16f#/	.
16F#\	16a/	.
16E\	16g#/ 16cc#/	.
16d\JJ	16b/JJ	.
=7	=7	=7
16c#\LL	16e/LL	.
16A\	16a/	.
16d\	16e#/	.
16D\	16f#/	.
16E\	16g#/ 16cc#/	.
16d\JJ	16b/JJ	.
=8	=8	=8
16c#\LL	16a/LL	.
16cn\	16ee/	.
16F#\	16e/	.
16AA\	16a/	.
16BB\	16d#/ 16ccn/	.
16A\JJ	16b/JJ)	.
=9	=9	=9
16G\LL	(16B/LL	.
16EE\	16e/	.
16AA\	16cn/	.
16A\	16e/	.
16BB\	16d#/ 16g/	.
16A\JJ	16f#/JJ	.
=10	=10	=10
16G\LL	16e/LL	.
16E\	16ee/	.
16e\	16g/	.
16G\	16b/	.
16F#\	16a#/ 16dd/	.
16e\JJ	16cc#/JJ)	.
=11	=11	=11
16d\LL	(16b/LL	.
16BB\	16f#/	.
16E\	16g/	.
16e\	16b/	.
16F#\	16a#/ 16dd/	.
16e\JJ	16cc#/JJ	.
=12	=12	=12
16d\LL	16b\LL	.
16E#\	16bb\	.
16B\	16gg#\	.
16g#\	16dd\	.
16c#\	16cc#\	.
16d\JJ	16b\JJ)	.
=13	=13	=13
16c#\LL	(16a#\LL	f
16F#\	16ff#\	.
16d\	16b\	.
16BB\	16gg#\	.
16c#\	16e#\	.
16C#\JJ	16aa#\JJ	.
=14	=14	=14
16FF#\LL	16a#\LL	.
16c#\	16ff#\	.
16d\	16b\	.
16BB\	16gg#\	.
16c#\	16e#\	.
16C#\JJ	16aa#\JJ	.
=15	=15	=15
16FF#\LL	16a#\LL	.
16c#\	16ff#\	.
16d\	16b\	.
16BB\	16gg#\	.
16c#\	16e#\	.
16C#\JJ	16aa#\JJ	.
=16	=16	=16
16FF#\LL	16a#\LL	.
16c#\	16ff#\	.
16d\	16b\	.
16BB\	16gg#\	.
16c#\	16e#\	.
16C#\JJ	16aan\JJ	.
=17	=17	=17
16FF#\LL	16ff#/LL	.
16An\	16f#/)	.
16G\	(16c#/	.
16AA\	16b^/	.
16G\	16ee/	.
16e\JJ	16a^/JJ	.
=18	=18	=18
16G\LL	16c#/LL	<
16AA\	16b-^/	.
16G\	16ee/	.
16e\	16a^/	.
16G\	16c#/	.
16AA\JJ	16bn^/JJ	.
=19	=19	=19
16G\LL	16ee/LL	.
16e\	16a^/	.
16G\	16c#/	>
16AA\	16b-^/	.
16G\	16ee/	.
16e\JJ	16a^/JJ	.
=20	=20	=20
16G\LL	16c#/LL	.
16AA\	16bn^/	.
16G\	16ee/	.
16e\	16a^/	.
16G\	16c#/	.
16A\JJ	16f#/JJ)	.
=21	=21	=21
16DD\LL	(16d/LL	p
16F#\	16A/	.
16G\	16A#/	.
16GG\	16B/	.
16AA\	16c#/ 16g/	.
16A\JJ	16f#/JJ	.
=22	=22	=22
16F#\LL	16d/LL	<
16BB\	16dd/	.
16d\	16f#/	.
16Fn\	16a/	.
16E\	16g#/ 16ccn/	.
16d\JJ	16b/JJ)	.
=23	=23	=23
16cn\LL	(16e/LL	.
16A\	16a/	.
16d\	16fn/	.
16D\	16a/	.
16E\	16g#/ 16ccn/	.
16d\JJ	16b/JJ	.
=24	=24	=24
16c#\LL	16a/LL	.
16cn\	16ee/	.
16F#\	16e/	.
16AA\	16f#/	.
16BB\	16d#/ 16ccn/	.
16A\JJ	16b/JJ)	.
=25	=25	=25
16G\LL	(16B/LL	.
16EE\	16e/	.
16AA\	16cn/	.
16A\	16e/	.
16BB\	16d#/ 16g/	.
16A\JJ	16f#/JJ	.
=26	=26	=26
16G\LL	16e/LL	.
16E\	16ee/	.
16e\	16g/	.
16G\	16b/	.
16F#\	16a#/ 16dd/	.
16e\JJ	16cc#/JJ)	.
=27	=27	=27
16d\LL	(16b/LL	.
16BB\	16f#/	.
16E\	16g/	.
16e\	16b/	.
16F#\	16a#/ 16dd/	.
16e\JJ	16cc#/JJ	.
=28	=28	=28
16d\LL	16b\LL	.
16E#\	16bb\	.
16B\	16gg#\	.
16g#\	16dd\	.
16c#\	16cc#\	.
16d\JJ	16b\JJ)	.
=29	=29	=29
16F#\LL	(16an/LL	f
16d\	16dd/	.
16B-\	16g/	.
16GG\	16ee/	.
16A\	16c#/	.
16AA\JJ	16ff#/JJ	.
=30	=30	=30
16DD\LL	16f#/LL	.
16A\	16dd/	.
16B-\	16g/	.
16GG\	16ee/	.
16A\	16c#/	.
16AA\JJ	16ff#/JJ	.
=31	=31	=31
16DD\LL	16f#/LL	>
16A\	16dd/	.
16B-\	16g/	.
16GG\	16ee/	.
16A\	16c#/	.
16AA\JJ	16ff#/JJ	.
=32	=32	=32
16DD\LL	16f#/LL	.
16A\	16dd/	.
16B-\	16g/	.
16GG\	16ee/	.
16A\	16c#/	.
16AA\JJ	16ff#/JJ	.
=33	=33	=33
16DD\LL	16f#/LL	p
16AA\	16dd/)	<
16A\	(16d/	.
16AA\	16b-^/	.
16DD\	16dd/	.
16AA\JJ	16a^/JJ	.
=34	=34	=34
16A\LL	16d/LL	.
16AA\	16g^/	.
16DD\	16dd/	.
16AA\	16f#^/	.
16A\	16d/	.
16AA\JJ	16b-^/JJ	.
=35	=35	=35
16DD\LL	16dd/LL	.
16AA\	16a^/	.
16A\	16d/	.
16AA\	16g/	.
16DD\	16dd/	.
16AA\JJ	16f#^/JJ	.
=36	=36	=36
16A'\LL	16d/LL	.
16AA\	16b-^/	.
16DD\	16dd/	.
16AA\	16a/	.
16A\	16d^/	.
16AA\JJ	16dd/JJ	.
=37	=37	=37
8DD'/	8fff#'\)	.
8r	8r	.
8r	8r	.
=38	=38	=38
8AA'\ 8E'\ 8c#'\	8g'\ 8ee'\ 8aa'\	f
8r	8r	.
8r	8r	.
=39	=39	=39
DDq/	.	.
8D'\ 8A'\ 8d'\	8f#'\ 8dd'\ 8ff#'\	.
8r	8r	.
8r;	8r;	.
==	==	==
*-	*-	*-
!!!ENC: Craig Stuart Sapp
!!!END: 2004/12/22/
